X:1
T: Mazurka \`a Cl\'ement
C: Philippe Souché
R: mazurka
M: 3/4
L: 1/8
K: Am
"Am"ef ea- a2 | ef ec- c2 | ef ea ef | ed cA Bc |
"G"d2 Bd gf | "C"e2 d2 c2 |[1 "E7"BA Bc de | "Am"cB AB cd :|[2 "E7"BA Bd cB | "Am"A2 c2 B2 ||
|: "Am"A3 "G"B3 | "F"c2 cd- dc | "E7"BA Bd cB | "Am"A2 c2 B2 |
"Am"A3 E"G"B- BG | "F"c3 d- dc |"E7"BA Bd cB | "Am"A2 z4 :|
